X:1
T:Title
%%score { ( 1 3 ) | ( 2 4 ) }
L:1/8
M:6/8
K:F
V:1 treble nm="Grand Piano"
V:3 treble 
V:2 bass 
V:4 bass 
V:1
 z3 z2[Q:1/4=95] C | F2 F A2 A | .c3 z3 | [EG]2 [EG] [EG][DF][EG] |[M:5/8] A-A- A3 |[M:1/8] C | %6
[M:3/4] F2 F A2 A | c2 z2 z2 | E2 G [=B,FA]2 [B,FG] |[M:5/8] [CEG]-[CEG]- [CEG]3 |[M:1/8] [CEG] | %11
[M:3/4] [=B,FG]2 [B,DG] [CEG]2 [CEG] | [CFA]2 [CFA] [CEG]2 [CEG] | [CDA]2 [DFc] [EGc]2 [DF=B] | %14
[M:5/8] [CEc]-[CEc]- [CEc]3 |[M:1/8] [A,C] |[M:3/4] [A,CF]2 [A,CF] [CFA]2 [CFA] | %17
 [FAc]2 [FB][FA] [G,EG][A,F] | [B,EG]2 [B,EG][EG] [FA][EG] |[M:5/8] F-F- F3 |[M:1/8] F | %21
[M:3/4] A2 A d2 c | =B4- BG | =B2 B e2 d |[M:5/8] [Ec]-[Ec]- [Ec]3 |[M:1/8] C |[M:3/4] F2 F A2 A | %27
 c2 z2 z2 | [EG]2 [EG][EG] [DF][EG] |[M:5/8] A-A- A3 |[M:1/8] F |[M:3/4] A2 A c2 c | f2 ed c[DFB] | %33
 F-[FG] [A,FA] [EB]2 E |[M:5/8] F-F- F3 |] %35
V:2
 z3 z2 [F,A,] | [F,A,C]2 [F,A,C] [F,CF]2 [F,CF] | z E[F,DF] [CF][B,E][F,A,] | %3
 [C,B,]2 [C,B,] [C,B,]2 [C,B,] |[M:5/8] [F,A,F]-[F,A,F]- [F,A,F]3 |[M:1/8] [F,A,] | %6
[M:3/4] [F,A,C]2 [F,A,C][K:treble] [F,CF]2 [F,CF] | [FA]E [F,DF][K:bass][CF] [B,E][F,A,] | %8
 [G,C]2 [G,CE] G,,2 G,, |[M:5/8] C,-C,- C,3 |[M:1/8] C, |[M:3/4] C,2 C, C,2 C, | F,2 F, C,2 C, | %13
 F,2 A, G,2 G,, |[M:5/8] C,-C,- C,3 |[M:1/8] F, |[M:3/4] F,2 F, F,2 F, | F,E, [D,F,][C,F,] B,,A,, | %18
 C,2 C, [C,B,]2 [C,B,] |[M:5/8] [F,A,]-[F,A,]- [F,A,]3 |[M:1/8] [F,A,] | %21
[M:3/4][K:treble] [F,CF]2 [F,CF] [F,B,F]2 [F,A,F] | [G,DF]4- [G,DF][G,=B,F] | %23
 [G,DF]2 [G,DF] [G,=B,F]2 [G,B,F] |[M:5/8][K:bass] [C,C]-[C,C]- [C,C]3 |[M:1/8] [C,B,] | %26
[M:3/4] [F,A,C]2 [F,A,C] [F,CF]2 [F,CF] | z E [F,DF][CF] [B,E][F,A,] | %28
 [C,B,]2 [C,B,] [C,B,]2 [C,B,] |[M:5/8] [F,A,F]-[F,A,F]- [F,A,F]3 |[M:1/8] [F,A,] | %31
[M:3/4][K:treble] [F,CF]2 [F,CF] [G,CE]2 [G,CE] | [A,CF]2 [A,^CF][DF] E[K:bass]B,, | %33
 z B, C, [C,G,]2 [C,B,C] |[M:5/8] [F,A,C]-[F,A,C]- [F,A,C]3 |] %35
V:3
 x6 | x6 | [FA]GB AGF | x6 |[M:5/8] x5 |[M:1/8] x |[M:3/4] x6 | z G BA GF | x6 |[M:5/8] x5 | %10
[M:1/8] x |[M:3/4] x6 | x6 | x6 |[M:5/8] x5 |[M:1/8] x |[M:3/4] x6 | x6 | x6 |[M:5/8] x5 | %20
[M:1/8] x |[M:3/4] x6 | x6 | x6 |[M:5/8] x5 |[M:1/8] x |[M:3/4] x6 | [FA]G BA GF | x6 |[M:5/8] x5 | %30
[M:1/8] x |[M:3/4] x6 | x6 | .[CA]2 z2 z2 |[M:5/8] x5 |] %35
V:4
 x6 | x6 | .F,3 .F,3 | x6 |[M:5/8] x5 |[M:1/8] x |[M:3/4] x3[K:treble] x3 | z2 z[K:bass] .F,3 | %8
 x6 |[M:5/8] x5 |[M:1/8] x |[M:3/4] x6 | x6 | x6 |[M:5/8] x5 |[M:1/8] x |[M:3/4] x6 | x6 | x6 | %19
[M:5/8] x5 |[M:1/8] x |[M:3/4][K:treble] x6 | x6 | x6 |[M:5/8][K:bass] x5 |[M:1/8] x |[M:3/4] x6 | %27
 F,2 z .F,3 | x6 |[M:5/8] x5 |[M:1/8] x |[M:3/4][K:treble] x6 | z2 z .B,3[K:bass] | C,2 z2 z2 | %34
[M:5/8] x5 |] %35

